src/assets/tokens/hyperbera-usdc.svg

<svg xmlns="http://www.w3.org/2000/svg" fill="none" viewBox="0 0 624 624"><path fill="#00EBAB" d="M312 624c172.313 0 312-139.687 312-312S484.313 0 312 0 0 139.687 0 312s139.687 312 312 312"/><path fill="#000" d="M380.913 478.148H360.29c-1.609 0-3.479.801-4.554 2.144-9.37 9.644-20.356 15-34.013 15s-20.356 0-30.526-1.61c-8.835-1.335-16.335-6.157-22.76-12.856-1.876-1.877-3.746-2.678-6.424-2.678-13.924 0-27.848.534-41.772-.801-28.657-2.411-54.361-11.513-73.107-34.547-11.78-14.458-17.403-31.335-18.746-49.806-1.335-17.136.534-33.738 9.369-48.738 4.555-7.5 9.644-14.725 15-21.691 6.691-8.835 12.856-17.678 14.191-28.924.267-1.877 0-4.288-1.068-5.89-9.644-15.534-16.869-31.869-20.356-49.806-6.157-31.335 9.911-61.327 39.095-72.039 13.39-5.089 27.047-4.013 40.437.801 13.924 4.822 25.978 12.856 36.957 22.759 1.877 1.877 3.479 2.144 5.89 1.335 21.691-5.623 43.382-6.966 65.607-4.013 7.233 1.068 14.459 2.678 21.691 3.746 1.336 0 3.48-.267 4.555-1.335 11.513-10.445 24.369-18.746 39.369-23.835 40.704-13.924 74.442 17.945 78.196 48.471 1.877 16.602-1.335 32.403-7.5 47.395-3.746 8.835-8.835 17.403-13.39 25.979-.801 1.61-1.068 3.479-.801 5.356 1.877 12.589 9.102 22.492 16.869 31.869 10.178 12.589 18.746 26.246 21.157 42.848 6.691 44.45-11.246 88.107-61.861 104.442-16.869 5.356-34.814 6.966-50.615 6.424z"/><path fill="#000" d="M329.014 105H283v11.388h45.612v11.389H283V162h57v-11.388h-45.612v-11.389H340V105z"/><path fill="#00EBAB" d="M374 361.995c0-32.53-19.433-43.683-58.299-48.33-27.761-3.719-33.313-11.153-33.313-24.167s9.254-21.377 27.761-21.377c16.657 0 25.911 5.577 30.537 19.519.926 2.788 3.703 4.646 6.479 4.646h14.804c3.703 0 6.479-2.788 6.479-6.505v-.93c-3.703-20.449-20.359-36.249-41.642-38.107v-22.307c0-3.718-2.776-6.507-7.403-7.437h-13.88c-3.703 0-6.479 2.788-7.405 7.437v21.377c-27.761 3.719-45.342 22.307-45.342 45.544 0 30.672 18.507 42.754 57.373 47.402 25.911 4.647 34.24 10.224 34.24 25.096s-12.957 25.095-30.538 25.095c-24.061 0-32.39-10.225-35.166-24.167-.924-3.717-3.7-5.577-6.476-5.577h-15.733c-3.7 0-6.476 2.788-6.476 6.507v.93c3.7 23.235 18.507 39.965 49.044 44.614v22.307c0 3.716 2.776 6.505 7.403 7.435h13.88c3.703 0 6.479-2.788 7.405-7.435v-22.307C355.493 406.609 374 387.091 374 361.995"/></svg>

<svg width="624" height="624" viewBox="0 0 624 624" fill="none" xmlns="http://www.w3.org/2000/svg">
<path d="M312 624C484.313 624 624 484.313 624 312C624 139.687 484.313 0 312 0C139.687 0 0 139.687 0 312C0 484.313 139.687 624 312 624Z" fill="#00EBAB"/>
<path d="M380.913 478.148H360.29C358.681 478.148 356.811 478.949 355.736 480.292C346.366 489.936 335.38 495.292 321.723 495.292C308.066 495.292 301.367 495.292 291.197 493.682C282.362 492.347 274.862 487.525 268.437 480.826C266.561 478.949 264.691 478.148 262.013 478.148C248.089 478.148 234.165 478.682 220.241 477.347C191.584 474.936 165.88 465.834 147.134 442.8C135.354 428.342 129.731 411.465 128.388 392.994C127.053 375.858 128.922 359.256 137.757 344.256C142.312 336.756 147.401 329.531 152.757 322.565C159.448 313.73 165.613 304.887 166.948 293.641C167.215 291.764 166.948 289.353 165.88 287.751C156.236 272.217 149.011 255.882 145.524 237.945C139.367 206.61 155.435 176.618 184.619 165.906C198.009 160.817 211.666 161.893 225.056 166.707C238.98 171.529 251.034 179.563 262.013 189.466C263.89 191.343 265.492 191.61 267.903 190.801C289.594 185.178 311.285 183.835 333.51 186.788C340.743 187.856 347.969 189.466 355.201 190.534C356.537 190.534 358.681 190.267 359.756 189.199C371.269 178.754 384.125 170.453 399.125 165.364C439.829 151.44 473.567 183.309 477.321 213.835C479.198 230.437 475.986 246.238 469.821 261.23C466.075 270.065 460.986 278.633 456.431 287.209C455.63 288.819 455.363 290.688 455.63 292.565C457.507 305.154 464.732 315.057 472.499 324.434C482.677 337.023 491.245 350.68 493.656 367.282C500.347 411.732 482.41 455.389 431.795 471.724C414.926 477.08 396.981 478.69 381.18 478.148H380.913Z" fill="black"/>
<path d="M329.014 105H283V116.388H328.612V127.777H283V162H340V150.612H294.388V139.223H340V105H329.014Z" fill="black"/>
<path d="M374 361.995C374 329.465 354.567 318.312 315.701 313.665C287.94 309.946 282.388 302.512 282.388 289.498C282.388 276.484 291.642 268.121 310.149 268.121C326.806 268.121 336.06 273.698 340.686 287.64C341.612 290.428 344.389 292.286 347.165 292.286H361.969C365.672 292.286 368.448 289.498 368.448 285.781V284.851C364.745 264.402 348.089 248.602 326.806 246.744V224.437C326.806 220.719 324.03 217.93 319.403 217H305.523C301.82 217 299.044 219.788 298.118 224.437V245.814C270.357 249.533 252.776 268.121 252.776 291.358C252.776 322.03 271.283 334.112 310.149 338.76C336.06 343.407 344.389 348.984 344.389 363.856C344.389 378.728 331.432 388.951 313.851 388.951C289.79 388.951 281.461 378.726 278.685 364.784C277.761 361.067 274.985 359.207 272.209 359.207H256.476C252.776 359.207 250 361.995 250 365.714V366.644C253.7 389.879 268.507 406.609 299.044 411.258V433.565C299.044 437.281 301.82 440.07 306.447 441H320.327C324.03 441 326.806 438.212 327.732 433.565V411.258C355.493 406.609 374 387.091 374 361.995Z" fill="#00EBAB"/>
</svg>
